X:1
T:Title
%%score { ( 1 4 ) | ( 2 3 ) }
L:1/8
Q:1/4=100
M:4/4
K:D
V:1 treble nm="Grand Piano"
V:4 treble 
V:2 bass 
V:3 bass 
V:1
 D2 F>[EG] [FA]2 [GB]2 | [Gc]2 [Fd]2 E4 | G2 F>E F2 A2 | F2 [CE]2 D4 | D2 F>[EG] [FA]2 [GB]2 | %5
w: G.~F.~Root * * * *|||||
 [Gc]2 [Fd]2 E4 | G2 F>E F2 A2 | F2 [CE]2 D4 | B2 d>B [DFA]2 [DFB]2 | [B,EG]2 [A,CA]2 F4 | %10
w: |||||
 B2 d>B [DFA]2 [DFB]2 | [CEA]2 [B,D^G]2 [A,CA]4 | [F,D]2 [A,DF]>[A,EG] [A,FA]2 [GB]2 | %13
w: |||
 [Gc]2 [Fd]2 E4 | G2 F>E F2 A2 | F2 [CE]2 D4 | [Bd]2 [GB]2 [FA]4 | [Bd]2 [GB]2 [FA]4 | %18
w: |||||
 [F,D]E[K:treble][DF][EG] [FA]2 [GB]2 | [DF]2 [CE]2 D4 |] %20
w: ||
V:2
 [D,F,]2 [D,A,D]>[D,A,] [D,A,]2 [D,A,]2 | [D,A,]2 [D,A,]2 [G,B,]4 | %2
 [A,E]2 [A,D]>[A,C] [D,A,D]2 [F,A,D]2 | [A,D]2 [A,,G,]2 [D,F,]4 | %4
 [D,F,]2 [D,A,D]>[D,A,] [D,A,]2 [D,A,]2 | [D,A,]2 [D,A,]2 [G,B,]4 | %6
 [A,E]2 [A,D]>[A,C] [D,A,D]2 [F,A,D]2 | [A,D]2 [A,,G,]2 [D,F,]4 | %8
 [G,D]2 [G,B,D]>[G,B,G][K:bass] D,2 B,,2 | E,2 A,,2 [D,A,D]4 | %10
 [G,D]2 [G,B,D]>[G,B,G][K:bass] D,2 B,,2 | E,2 E,2 A,,4 | D,2 D,>D, D,2 [D,A,]2 | %13
 [D,A,]2 [D,A,]2 [G,B,]4 | [A,E]2 [A,D]>[A,C] [D,A,D]2 [F,A,D]2 | [A,D]2 [A,,G,]2 [D,F,]4 | %16
 D,-[D,-A,][D,-B,][D,-C] [D,D]4 | D,-[D,-A,][D,-B,][D,-C] [D,D]4 | z G, A,4 [G,,G,]2 | %19
 [A,,A,]2 [A,,G,]2 [D,F,]4 |] %20
V:3
 x8 | x8 | x8 | x8 | x8 | x8 | x8 | x8 | x4[K:bass] x4 | x8 | x4[K:bass] x4 | x8 | x8 | x8 | x8 | %15
 x8 | .G,2 z2 z4 | .G,2 z2 z4 | D,6 z2 | x8 |] %20
V:4
 x8 | x8 | x8 | x8 | x8 | x8 | x8 | x8 | x8 | x8 | x8 | x8 | x8 | x8 | x8 | x8 | x8 | x8 | %18
 z4[K:treble] D4 | x8 |] %20

